X: 3
T: Master Crowley's
R: reel
M: 4/4
L: 1/8
K: Dmix
|: A,D D/2D/2D A,DFD | ECB,C G,CEC | A,D D/2D/2D A,DFA | GE^cE FDEC || A,D D/2D/2D A,DFD | E/2G/2E CE G,ECE | DEFD EFGA | GE^cE FDD2 :||: dgfg egdg | ecBc Gcec | dgfg egdB | cGEG FEDA |dgfg egdg | ecBc efgG | FGAB cGEG | A^cGE FDD2 :|Adfd Adfd | ecBc Gce^c | Adfd Adfa | ge^c'e fd^cB |Adfd Adfd | ecBc efgG | FGAB cGEG | A^cGE FDD2 ||


Tune 281	Setting 13030

